;FLAVOR:Marlin
;TIME:1835
;Filament used: 2.75645m
;Layer height: 0.2
;MINX:127.264
;MINY:126.665
;MINZ:0.2
;MAXX:191.784
;MAXY:188.685
;MAXZ:8
;TARGET_MACHINE.NAME:ELEGOO NEPTUNE 4 Plus
;Generated with Cura_SteamEngine 5.9.1
M82 ;absolute extrusion mode
;ELEGOO NEPTUNE 4 PLUS
M220 S100 ;Set the feed speed to 100%
M221 S100 ;Set the flow rate to 100%
M104 S140 ;Start heating extruder
M190 S80 ;Wait for the bed to reach print temp
G90
G28 ;home
G1 Z10 F300
G1 X115 Y0 F6000
G1 Z0 F300
M109 S230 ;Wait for extruder to reach print temp
G92 E0 ;Reset Extruder
G1 X115 Y0 Z0.4 F300 ;Move to start position
G1 X215 E30 F400 ;Draw the first line
G1 Z0.6 F120.0 ;Move to side a little
G1 X210 F3000
G92 E0 ;Reset Extruder
G92 E0
G92 E0
G1 F2700 E-0.5
;LAYER_COUNT:40
;LAYER:0
M107
M204 S500
G0 F7200 X167.481 Y188.553 Z0.2
;TYPE:SKIRT
G1 F2700 E0
G1 F3600 X165.845 Y188.652 E0.07155
G1 X164.852 Y188.685 E0.11492
G1 X163.386 Y188.612 E0.179
G1 X162.68 Y188.565 E0.20988
G1 X162.083 Y188.495 E0.23612
G1 X160.893 Y188.308 E0.28871
G1 X160.083 Y188.168 E0.32459
G1 X159.383 Y187.994 E0.35608
G1 X157.669 Y187.521 E0.4337
G1 X156.177 Y186.961 E0.50327
G1 X155.371 Y186.638 E0.54117
G1 X154.759 Y186.339 E0.57091
G1 X153.302 Y185.586 E0.64251
G1 X152.807 Y185.294 E0.66759
G1 X151.814 Y184.652 E0.71921
G1 X151.2 Y184.241 E0.75147
G1 X150.568 Y183.763 E0.78606
G1 X149.769 Y183.115 E0.83097
G1 X148.999 Y182.462 E0.87504
G1 X147.962 Y181.427 E0.939
G1 X147.28 Y180.714 E0.98207
G1 X146.369 Y179.591 E1.0452
G1 X145.92 Y179.019 E1.07694
G1 X145.592 Y178.557 E1.10167
G1 X144.971 Y177.603 E1.15137
G1 X144.563 Y176.957 E1.18472
G1 X144.142 Y176.245 E1.22083
G1 X143.425 Y174.989 E1.28396
G1 X141.994 Y172.644 E1.40389
G1 X140.519 Y170.372 E1.52214
G1 X138.969 Y168.128 E1.64119
G1 X137.364 Y165.938 E1.75972
G1 X135.713 Y163.815 E1.87712
G1 X133.964 Y161.694 E1.99713
G1 X132.196 Y159.666 E2.11458
G1 X131.39 Y158.801 E2.16619
G1 X131.279 Y158.662 E2.17396
G1 X130.435 Y157.741 E2.22849
G1 X130.041 Y157.277 E2.25507
G1 X129.447 Y156.507 E2.29752
G1 X128.759 Y155.388 E2.35486
G1 X128.204 Y154.228 E2.411
G1 X127.885 Y153.352 E2.4517
G1 X127.715 Y152.788 E2.47741
G1 X127.56 Y152.17 E2.50522
G1 X127.428 Y151.475 E2.53611
G1 X127.309 Y150.619 E2.57383
G1 X127.264 Y149.479 E2.62364
G1 X127.285 Y148.904 E2.64876
G1 X127.351 Y148.018 E2.68754
G1 X127.514 Y147.066 E2.7297
G1 X127.668 Y146.404 E2.75937
G1 X127.961 Y145.414 E2.80444
G1 X128.435 Y144.269 E2.85854
G1 X128.835 Y143.506 E2.89615
G1 X129.133 Y143.005 E2.9216
G1 X129.663 Y142.205 E2.96349
G1 X130.539 Y141.149 E3.02338
G1 X131.543 Y140.184 E3.08417
G1 X132.519 Y139.431 E3.13799
G1 X133.291 Y138.944 E3.17783
G1 X133.791 Y138.664 E3.20285
G1 X134.804 Y138.178 E3.2519
G1 X136.034 Y137.738 E3.30892
G1 X136.876 Y137.526 E3.34683
G1 X137.538 Y137.399 E3.37625
G1 X138.368 Y137.289 E3.4128
G1 X140.983 Y137.083 E3.52731
G1 X143.708 Y136.796 E3.64693
G1 X146.356 Y136.443 E3.76354
G1 X149.069 Y136.001 E3.88354
G1 X151.762 Y135.485 E4.00324
G1 X154.412 Y134.899 E4.12172
G1 X157.029 Y134.243 E4.23949
G1 X159.642 Y133.507 E4.358
G1 X162.28 Y132.683 E4.47865
G1 X164.823 Y131.811 E4.596
G1 X167.4 Y130.844 E4.71616
G1 X169.905 Y129.821 E4.83428
G1 X172.409 Y128.715 E4.95378
G1 X174.826 Y127.581 E5.07032
G1 X176.002 Y127.167 E5.12475
G1 X176.837 Y126.957 E5.16233
G1 X177.524 Y126.826 E5.19286
G1 X178.396 Y126.705 E5.2313
G1 X179.37 Y126.665 E5.27385
G1 X180.093 Y126.68 E5.30542
G1 X180.925 Y126.738 E5.34183
G1 X181.913 Y126.903 E5.38555
G1 X182.605 Y127.064 E5.41657
G1 X183.574 Y127.35 E5.46067
G1 X184.544 Y127.746 E5.50641
G1 X185.018 Y127.973 E5.52935
G1 X185.505 Y128.231 E5.55341
G1 X186.008 Y128.53 E5.57896
G1 X186.7 Y128.989 E5.61521
G1 X187.156 Y129.342 E5.64038
G1 X187.769 Y129.852 E5.67519
G1 X188.623 Y130.715 E5.72819
G1 X188.985 Y131.143 E5.75266
G1 X189.346 Y131.602 E5.77815
G1 X189.765 Y132.203 E5.81014
G1 X190.28 Y133.044 E5.85319
G1 X190.853 Y134.237 E5.91096
G1 X191.267 Y135.403 E5.96498
G1 X191.575 Y136.67 E6.0219
G1 X191.727 Y137.733 E6.06877
G1 X191.784 Y138.946 E6.12178
G1 X191.763 Y139.532 E6.14738
G1 X191.688 Y140.492 E6.18942
G1 X191.503 Y141.537 E6.23574
G1 X191.054 Y143.476 E6.32263
G1 X190.488 Y146.15 E6.44194
G1 X190.003 Y148.813 E6.56011
G1 X189.594 Y151.481 E6.67794
G1 X189.257 Y154.194 E6.79728
G1 X188.998 Y156.895 E6.91573
G1 X188.814 Y159.624 E7.03513
G1 X188.71 Y162.352 E7.15431
G1 X188.697 Y163.939 E7.22359
G1 X188.668 Y165.416 E7.28808
G1 X188.608 Y166.609 E7.34022
G1 X188.546 Y167.51 E7.37965
G1 X188.308 Y169.082 E7.44905
G1 X188.131 Y170.076 E7.49313
G1 X187.75 Y171.514 E7.55807
G1 X187.466 Y172.492 E7.60253
G1 X186.98 Y173.769 E7.66217
G1 X186.57 Y174.781 E7.70984
G1 X185.871 Y176.158 E7.77725
G1 X185.413 Y177.007 E7.81936
G1 X184.632 Y178.213 E7.88208
G1 X184.039 Y179.084 E7.92808
G1 X183.157 Y180.179 E7.98946
G1 X182.693 Y180.737 E8.02114
G1 X182.315 Y181.148 E8.04552
G1 X181.438 Y182.026 E8.09969
G1 X180.842 Y182.604 E8.13593
G1 X180.297 Y183.062 E8.16701
G1 X178.943 Y184.144 E8.24267
G1 X177.639 Y185.008 E8.31096
G1 X176.807 Y185.53 E8.35384
G1 X175.442 Y186.238 E8.42096
G1 X174.74 Y186.583 E8.45511
G1 X174.028 Y186.882 E8.48882
G1 X172.28 Y187.539 E8.57034
G1 X170.777 Y187.951 E8.63837
G1 X169.894 Y188.173 E8.67812
G1 X168.361 Y188.427 E8.74595
G1 X167.481 Y188.553 E8.78476
G1 F2700 E8.28476
G0 F7200 X168.287 Y187.907
G1 F2700 E8.78476
G1 F3600 X167.407 Y188.033 E8.82356
G1 X165.828 Y188.127 E8.89262
G1 X164.835 Y188.16 E8.93599
G1 X163.421 Y188.088 E8.99779
G1 X162.715 Y188.041 E9.02868
G1 X162.164 Y187.976 E9.0529
G1 X160.982 Y187.791 E9.10513
G1 X160.209 Y187.658 E9.13937
G1 X159.522 Y187.488 E9.17027
G1 X157.854 Y187.03 E9.24577
G1 X156.371 Y186.473 E9.31493
G1 X155.601 Y186.166 E9.35112
G1 X155 Y185.873 E9.3803
G1 X153.568 Y185.133 E9.45067
G1 X153.092 Y184.853 E9.47478
G1 X152.106 Y184.216 E9.52602
G1 X151.492 Y183.805 E9.55828
G1 X150.899 Y183.355 E9.59077
G1 X150.108 Y182.714 E9.63522
G1 X149.37 Y182.09 E9.67741
G1 X148.341 Y181.063 E9.74087
G1 X147.688 Y180.383 E9.78203
G1 X146.782 Y179.267 E9.84478
G1 X146.348 Y178.715 E9.87543
G1 X146.032 Y178.27 E9.89926
G1 X145.415 Y177.323 E9.9486
G1 X145.015 Y176.69 E9.98128
G1 X144.598 Y175.984 E10.01708
G1 X143.88 Y174.728 E10.08023
G1 X142.442 Y172.371 E10.20076
G1 X140.959 Y170.086 E10.31968
G1 X139.401 Y167.83 E10.43937
G1 X137.787 Y165.628 E10.55855
G1 X136.118 Y163.481 E10.67726
G1 X134.36 Y161.349 E10.79789
G1 X132.592 Y159.321 E10.91534
G1 X131.8 Y158.473 E10.96599
G1 X131.677 Y158.319 E10.9746
G1 X130.835 Y157.401 E11.02898
G1 X130.457 Y156.956 E11.05446
G1 X129.863 Y156.186 E11.09692
G1 X129.232 Y155.161 E11.14946
G1 X128.697 Y154.048 E11.20337
G1 X128.388 Y153.2 E11.24277
G1 X128.218 Y152.636 E11.26848
G1 X128.076 Y152.071 E11.29392
G1 X127.948 Y151.401 E11.32369
G1 X127.834 Y150.598 E11.3591
G1 X127.789 Y149.498 E11.40716
G1 X127.809 Y148.943 E11.4314
G1 X127.875 Y148.057 E11.47019
G1 X128.025 Y147.185 E11.50881
G1 X128.172 Y146.551 E11.53722
G1 X128.446 Y145.615 E11.5798
G1 X128.92 Y144.47 E11.63389
G1 X129.287 Y143.774 E11.66824
G1 X129.571 Y143.295 E11.69255
G1 X130.101 Y142.495 E11.73444
G1 X130.903 Y141.527 E11.78932
G1 X131.864 Y140.6 E11.84761
G1 X132.84 Y139.847 E11.90142
G1 X133.548 Y139.402 E11.93793
G1 X134.048 Y139.122 E11.96294
G1 X134.982 Y138.672 E12.0082
G1 X136.162 Y138.247 E12.06295
G1 X136.975 Y138.042 E12.09955
G1 X137.637 Y137.915 E12.12898
G1 X138.409 Y137.812 E12.16298
G1 X141.038 Y137.605 E12.2781
G1 X143.763 Y137.318 E12.39771
G1 X146.44 Y136.961 E12.51561
G1 X149.168 Y136.517 E12.63627
G1 X151.861 Y136.001 E12.75596
G1 X154.525 Y135.412 E12.87507
G1 X157.157 Y134.752 E12.99352
G1 X159.799 Y134.008 E13.11334
G1 X162.45 Y133.18 E13.23458
G1 X164.993 Y132.308 E13.35194
G1 X167.594 Y131.331 E13.47323
G1 X170.103 Y130.307 E13.59153
G1 X172.621 Y129.195 E13.71169
G1 X175.001 Y128.076 E13.8265
G1 X176.13 Y127.676 E13.87878
G1 X176.936 Y127.473 E13.91507
G1 X177.598 Y127.346 E13.94449
G1 X178.418 Y127.23 E13.98065
G1 X179.392 Y127.19 E14.0232
G1 X180.058 Y127.204 E14.05228
G1 X180.839 Y127.256 E14.08645
G1 X181.827 Y127.421 E14.13018
G1 X182.458 Y127.568 E14.15846
G1 X183.376 Y127.836 E14.20021
G1 X184.318 Y128.22 E14.24461
G1 X184.773 Y128.437 E14.26662
G1 X185.237 Y128.682 E14.28953
G1 X185.718 Y128.968 E14.31395
G1 X186.41 Y129.427 E14.3502
G1 X186.82 Y129.746 E14.37288
G1 X187.433 Y130.256 E14.40769
G1 X188.222 Y131.054 E14.45668
G1 X188.572 Y131.468 E14.48035
G1 X188.933 Y131.927 E14.50584
G1 X189.318 Y132.478 E14.53518
G1 X189.807 Y133.272 E14.57589
G1 X190.358 Y134.413 E14.6312
G1 X190.772 Y135.579 E14.68522
G1 X191.055 Y136.744 E14.73755
G1 X191.207 Y137.807 E14.78443
G1 X191.259 Y138.927 E14.83337
G1 X191.239 Y139.493 E14.8581
G1 X191.171 Y140.4 E14.8978
G1 X190.986 Y141.445 E14.94413
G1 X190.54 Y143.367 E15.03026
G1 X189.975 Y146.041 E15.14957
G1 X189.484 Y148.733 E15.26902
G1 X189.075 Y151.401 E15.38685
G1 X188.734 Y154.144 E15.50752
G1 X188.475 Y156.845 E15.62597
G1 X188.29 Y159.589 E15.74603
G1 X188.185 Y162.332 E15.86586
G1 X188.172 Y163.929 E15.93557
G1 X188.144 Y165.389 E15.99932
G1 X188.084 Y166.574 E16.05112
G1 X188.027 Y167.431 E16.08861
G1 X187.791 Y168.99 E16.15744
G1 X187.614 Y169.984 E16.20152
G1 X187.246 Y171.368 E16.26403
G1 X186.975 Y172.305 E16.30661
G1 X186.493 Y173.572 E16.36579
G1 X186.083 Y174.584 E16.41346
G1 X185.408 Y175.91 E16.47841
G1 X184.972 Y176.722 E16.51864
G1 X184.198 Y177.918 E16.58083
G1 X183.63 Y178.755 E16.62499
G1 X182.753 Y179.843 E16.68599
G1 X182.289 Y180.401 E16.71767
G1 X181.943 Y180.777 E16.73998
G1 X181.072 Y181.65 E16.79381
G1 X180.504 Y182.202 E16.82839
G1 X179.969 Y182.652 E16.85891
G1 X178.615 Y183.734 E16.93457
G1 X177.359 Y184.564 E17.00029
G1 X176.565 Y185.064 E17.04125
G1 X175.21 Y185.767 E17.10789
G1 X174.508 Y186.112 E17.14203
G1 X173.843 Y186.391 E17.17352
G1 X172.141 Y187.033 E17.25292
G1 X170.648 Y187.442 E17.3205
G1 X169.808 Y187.655 E17.35833
G1 X168.287 Y187.907 E17.42563
G1 F2700 E16.92563
;MESH:Eccentric_Shaft_bot.STL
G0 F7200 X141.141 Y148.008
;TYPE:WALL-INNER
G1 F2700 E17.42563
G1 F3600 X141.287 Y147.189 E17.46195
G1 X141.649 Y146.552 E17.49393
G1 X142.027 Y146.166 E17.51752
G1 X142.632 Y145.786 E17.54871
G1 X143.299 Y145.638 E17.57853
G1 X143.887 Y145.64 E17.6042
G1 X144.608 Y145.859 E17.63709
G1 X145.061 Y146.175 E17.66121
G1 X145.522 Y146.656 E17.69029
G1 X145.863 Y147.4 E17.72602
G1 X145.928 Y148.217 E17.7618
G1 X145.73 Y148.994 E17.7968
G1 X145.329 Y149.585 E17.82798
G1 X145.164 Y149.75 E17.83816
G1 X144.668 Y150.11 E17.86492
G1 X144.128 Y150.315 E17.89013
G1 X143.447 Y150.403 E17.92011
G1 X142.642 Y150.228 E17.95607
G1 X141.999 Y149.83 E17.98908
G1 X141.661 Y149.482 E18.01026
G1 X141.277 Y148.802 E18.04435
G1 X141.141 Y148.008 E18.07952
G1 F2700 E17.57952
G0 F7200 X134.399 Y150.079
G1 F2700 E18.07952
G1 F3606.9 X134.011 Y149.839 E18.09939
G1 F3600 X133.662 Y149.484 E18.12113
G1 X133.349 Y148.936 E18.14868
G1 X133.256 Y148.678 E18.16065
G1 X133.142 Y148.019 E18.18984
G1 X133.278 Y147.207 E18.22578
G1 X133.605 Y146.623 E18.255
G1 X133.969 Y146.201 E18.27933
G1 X134.631 Y145.788 E18.31339
G1 X135.317 Y145.635 E18.34407
G1 X135.863 Y145.633 E18.36791
G1 X136.529 Y145.836 E18.3983
G1 X137.005 Y146.117 E18.42243
G1 X137.513 Y146.647 E18.45448
G1 X137.851 Y147.368 E18.48924
G1 X137.934 Y148.203 E18.52587
G1 X137.723 Y148.995 E18.56165
G1 X137.261 Y149.676 E18.59758
G1 X136.658 Y150.121 E18.63029
G1 X136.171 Y150.306 E18.65303
G1 X135.459 Y150.4 E18.68439
G1 X134.653 Y150.236 E18.72029
G1 F3606.9 X134.399 Y150.079 E18.7333
G1 F2700 E18.2333
G0 F7200 X131.879 Y150.359
G1 F2700 E18.7333
G1 F3606.9 X131.999 Y151.115 E18.76665
G1 F3600 X132.206 Y151.883 E18.80138
G1 X132.496 Y152.639 E18.83672
G1 X132.867 Y153.365 E18.87231
G1 X133.303 Y154.037 E18.90728
G1 X133.803 Y154.657 E18.94205
G1 X134.387 Y155.242 E18.97814
G1 X135.011 Y155.746 E19.01315
G1 X135.682 Y156.181 E19.04806
G1 X136.409 Y156.552 E19.08369
G1 X137.165 Y156.842 E19.11904
G1 X137.933 Y157.049 E19.15376
G1 X138.735 Y157.176 E19.18921
G1 X139.541 Y157.219 E19.22444
G1 X140.349 Y157.176 E19.25977
G1 X141.151 Y157.049 E19.29521
G1 X141.919 Y156.842 E19.32994
G1 X142.675 Y156.552 E19.36528
G1 X143.402 Y156.181 E19.40091
G1 X144.073 Y155.746 E19.43582
G1 X144.696 Y155.241 E19.47083
G1 X145.281 Y154.657 E19.50692
G1 X145.781 Y154.037 E19.54169
G1 X146.217 Y153.365 E19.57665
G1 X146.587 Y152.639 E19.61223
G1 X146.878 Y151.883 E19.64759
G1 X147.084 Y151.117 E19.68222
G1 X147.208 Y150.314 E19.71768
G1 X147.251 Y149.508 E19.75292
G1 X147.208 Y148.697 E19.78837
G1 X147.085 Y147.895 E19.82379
G1 X146.878 Y147.129 E19.85843
G1 X146.588 Y146.373 E19.89378
G1 X146.217 Y145.646 E19.92941
G1 X145.781 Y144.975 E19.96434
G1 X145.281 Y144.355 E19.99911
G1 X144.696 Y143.77 E20.03523
G1 X144.073 Y143.266 E20.07021
G1 X143.402 Y142.831 E20.10512
G1 X142.675 Y142.46 E20.14075
G1 X141.919 Y142.17 E20.17609
G1 X141.153 Y141.964 E20.21072
G1 X140.35 Y141.84 E20.24619
G1 X139.54 Y141.797 E20.2816
G1 X138.734 Y141.84 E20.31683
G1 X137.931 Y141.964 E20.3523
G1 X137.164 Y142.17 E20.38697
G1 X136.409 Y142.46 E20.42228
G1 X135.683 Y142.831 E20.45787
G1 X135.011 Y143.266 E20.49282
G1 X134.388 Y143.771 E20.52783
G1 X133.803 Y144.356 E20.56394
G1 X133.302 Y144.975 E20.5987
G1 X132.867 Y145.647 E20.63365
G1 X132.497 Y146.374 E20.66926
G1 X132.206 Y147.129 E20.70458
G1 X131.999 Y147.897 E20.7393
G1 X131.872 Y148.699 E20.77475
G1 X131.828 Y149.508 E20.81012
G1 X131.872 Y150.312 E20.84527
G1 F3606.9 X131.879 Y150.359 E20.84734
G0 F7200 X131.357 Y150.417
;TYPE:WALL-OUTER
G1 F3606.9 X131.485 Y151.225 E20.88298
G1 F3600 X131.706 Y152.046 E20.9201
G1 X132.016 Y152.853 E20.95784
G1 X132.412 Y153.628 E20.99583
G1 X132.877 Y154.346 E21.03317
G1 X133.412 Y155.008 E21.07033
G1 X134.036 Y155.632 E21.10885
G1 X134.703 Y156.171 E21.14629
G1 X135.42 Y156.636 E21.18359
G1 X136.195 Y157.032 E21.22159
G1 X137.002 Y157.342 E21.25933
G1 X137.823 Y157.563 E21.29644
G1 X138.68 Y157.699 E21.33432
G1 X139.541 Y157.745 E21.37196
G1 X140.404 Y157.699 E21.40969
G1 X141.261 Y157.563 E21.44757
G1 X142.082 Y157.342 E21.48468
G1 X142.889 Y157.032 E21.52242
G1 X143.664 Y156.636 E21.56041
G1 X144.381 Y156.171 E21.59772
G1 X145.048 Y155.632 E21.63516
G1 X145.672 Y155.008 E21.67368
G1 X146.207 Y154.346 E21.71084
G1 X146.672 Y153.628 E21.74818
G1 X147.068 Y152.853 E21.78617
G1 X147.378 Y152.046 E21.82391
G1 X147.599 Y151.225 E21.86102
G1 X147.731 Y150.368 E21.89888
G1 X147.777 Y149.508 E21.93647
G1 X147.731 Y148.643 E21.97429
G1 X147.599 Y147.787 E22.0121
G1 X147.378 Y146.966 E22.04921
G1 X147.068 Y146.159 E22.08695
G1 X146.672 Y145.384 E22.12494
G1 X146.207 Y144.666 E22.16229
G1 X145.672 Y144.004 E22.19944
G1 X145.048 Y143.38 E22.23797
G1 X144.381 Y142.841 E22.2754
G1 X143.664 Y142.376 E22.31271
G1 X142.889 Y141.98 E22.3507
G1 X142.082 Y141.67 E22.38844
G1 X141.261 Y141.449 E22.42555
G1 X140.404 Y141.317 E22.46341
G1 X139.54 Y141.271 E22.50118
G1 X138.68 Y141.317 E22.53877
G1 X137.823 Y141.449 E22.57663
G1 X137.002 Y141.67 E22.61374
G1 X136.195 Y141.98 E22.65148
G1 X135.42 Y142.376 E22.68947
G1 X134.703 Y142.841 E22.72678
G1 X134.036 Y143.38 E22.76421
G1 X133.412 Y144.004 E22.80274
G1 X132.877 Y144.666 E22.83989
G1 X132.412 Y145.384 E22.87724
G1 X132.016 Y146.16 E22.91527
G1 X131.706 Y146.966 E22.95297
G1 X131.485 Y147.787 E22.99008
G1 X131.349 Y148.644 E23.02796
G1 X131.303 Y149.508 E23.06573
G1 X131.349 Y150.368 E23.10333
G1 F3606.9 X131.357 Y150.417 E23.10549
G0 F7200 X131.388 Y150.614
G1 F2700 E22.60549
G0 F7200 X133.673 Y148.013
G1 F2700 E23.10549
G1 F3600 X133.787 Y147.377 E23.1337
G1 X134.063 Y146.88 E23.15851
G1 X134.313 Y146.605 E23.17474
G1 X134.837 Y146.279 E23.20168
G1 X135.417 Y146.15 E23.22762
G1 X135.82 Y146.169 E23.24523
G1 X136.35 Y146.329 E23.2694
G1 X136.654 Y146.513 E23.28491
G1 X137.087 Y146.964 E23.3122
G1 X137.342 Y147.519 E23.33886
G1 X137.397 Y148.168 E23.3673
G1 X137.24 Y148.782 E23.39496
G1 X136.889 Y149.299 E23.42224
G1 X136.388 Y149.666 E23.44935
G1 X136.063 Y149.793 E23.46459
