;FLAVOR:Marlin
;TIME:322
;Filament used: 0.594128m
;Layer height: 0.2
;MINX:147.422
;MINY:150.021
;MINZ:0.2
;MAXX:182.578
;MAXY:185.176
;MAXZ:5
;TARGET_MACHINE.NAME:ELEGOO NEPTUNE 4 Plus
;Generated with Cura_SteamEngine 5.9.0
M82 ;absolute extrusion mode
;ELEGOO NEPTUNE 4 PLUS
M220 S100 ;Set the feed speed to 100%
M221 S100 ;Set the flow rate to 100%
M104 S140 ;Start heating extruder
M190 S80 ;Wait for the bed to reach print temp
G90
G28 ;home
G1 Z10 F300
G1 X115 Y0 F6000
G1 Z0 F300
M109 S230.0 ;Wait for extruder to reach print temp
G92 E0 ;Reset Extruder
G1 X115 Y0 Z0.4 F300 ;Move to start position
G1 X215 E30 F400 ;Draw the first line
G1 Z0.6 F120.0 ;Move to side a little
G1 X210 F3000
G92 E0 ;Reset Extruder
G92 E0
G92 E0
G1 F2700 E-0.5
;LAYER_COUNT:25
;LAYER:0
M107
M204 S500
G0 F7200 X166.989 Y185.069 Z0.2
;TYPE:SKIRT
G1 F2700 E0
G1 F3600 X164.693 Y185.176 E0.10034
G1 X162.875 Y185.05 E0.17989
G1 X161.175 Y184.761 E0.25517
G1 X159.601 Y184.332 E0.32639
G1 X157.74 Y183.609 E0.41354
G1 X155.963 Y182.683 E0.50101
G1 X154.735 Y181.875 E0.56519
G1 X153.061 Y180.504 E0.65964
G1 X151.812 Y179.227 E0.73762
G1 X150.719 Y177.857 E0.81413
G1 X149.863 Y176.543 E0.88259
G1 X148.839 Y174.518 E0.98164
G1 X148.258 Y172.965 E1.05403
G1 X147.744 Y170.985 E1.14333
G1 X147.535 Y169.653 E1.20219
G1 X147.422 Y167.303 E1.30489
G1 X147.539 Y165.498 E1.38385
G1 X147.744 Y164.204 E1.44105
G1 X148.321 Y162.045 E1.5386
G1 X148.989 Y160.34 E1.61854
G1 X149.861 Y158.659 E1.70121
G1 X150.823 Y157.202 E1.77743
G1 X152.019 Y155.743 E1.85978
G1 X153.372 Y154.411 E1.94266
G1 X154.742 Y153.318 E2.01917
G1 X156.054 Y152.463 E2.08753
G1 X158.078 Y151.439 E2.18655
G1 X159.634 Y150.857 E2.25907
G1 X161.614 Y150.343 E2.34837
G1 X162.946 Y150.134 E2.40723
G1 X165.297 Y150.021 E2.50998
G1 X167.101 Y150.138 E2.5889
G1 X168.395 Y150.343 E2.64609
G1 X170.554 Y150.92 E2.74365
G1 X172.261 Y151.589 E2.82368
G1 X173.94 Y152.46 E2.90625
G1 X175.397 Y153.422 E2.98247
G1 X176.856 Y154.618 E3.06483
G1 X178.188 Y155.971 E3.14771
G1 X179.281 Y157.341 E3.22422
G1 X180.136 Y158.653 E3.29258
G1 X181.16 Y160.677 E3.3916
G1 X181.742 Y162.233 E3.46412
G1 X182.256 Y164.213 E3.55342
G1 X182.465 Y165.543 E3.61219
G1 X182.578 Y167.895 E3.71499
G1 X182.461 Y169.7 E3.79395
G1 X182.256 Y170.994 E3.85114
G1 X181.679 Y173.153 E3.9487
G1 X181.011 Y174.858 E4.02863
G1 X180.139 Y176.539 E4.1113
G1 X179.177 Y177.996 E4.18752
G1 X177.981 Y179.455 E4.26987
G1 X176.628 Y180.787 E4.35276
G1 X175.258 Y181.88 E4.42926
G1 X173.946 Y182.735 E4.49763
G1 X171.933 Y183.757 E4.59618
G1 X170.537 Y184.288 E4.66138
G1 X168.54 Y184.823 E4.75163
G1 X166.989 Y185.069 E4.82018
G0 F7200 X166.907 Y184.55
G1 F3600 X164.729 Y184.652 E4.91537
G1 X162.962 Y184.532 E4.99268
G1 X161.313 Y184.254 E5.06568
G1 X159.739 Y183.825 E5.1369
G1 X157.931 Y183.12 E5.22161
G1 X156.252 Y182.244 E5.30429
G1 X155.024 Y181.436 E5.36846
G1 X153.436 Y180.136 E5.45804
G1 X152.222 Y178.899 E5.53371
G1 X151.159 Y177.57 E5.608
G1 X150.303 Y176.256 E5.67646
G1 X149.331 Y174.334 E5.77048
G1 X148.75 Y172.781 E5.84286
G1 X148.263 Y170.904 E5.92751
G1 X148.054 Y169.572 E5.98637
G1 X147.946 Y167.336 E6.0841
G1 X148.058 Y165.58 E6.16091
G1 X148.263 Y164.286 E6.2181
G1 X148.81 Y162.237 E6.31068
G1 X149.478 Y160.532 E6.39062
G1 X150.327 Y158.901 E6.47089
G1 X151.229 Y157.535 E6.54234
G1 X152.425 Y156.076 E6.6247
G1 X153.7 Y154.821 E6.7028
G1 X155.029 Y153.758 E6.77709
G1 X156.341 Y152.903 E6.84545
G1 X158.262 Y151.931 E6.93944
G1 X159.818 Y151.349 E7.01196
G1 X161.695 Y150.862 E7.09661
G1 X163.027 Y150.653 E7.15547
G1 X165.264 Y150.545 E7.25323
G1 X167.019 Y150.657 E7.33
G1 X168.313 Y150.862 E7.3872
G1 X170.362 Y151.409 E7.47977
G1 X172.069 Y152.078 E7.55981
G1 X173.698 Y152.926 E7.63998
G1 X175.064 Y153.828 E7.71144
G1 X176.523 Y155.024 E7.7938
G1 X177.778 Y156.299 E7.87189
G1 X178.841 Y157.628 E7.94619
G1 X179.696 Y158.94 E8.01455
G1 X180.668 Y160.861 E8.10853
G1 X181.25 Y162.417 E8.18105
G1 X181.737 Y164.294 E8.2657
G1 X181.946 Y165.624 E8.32448
G1 X182.054 Y167.862 E8.42229
G1 X181.942 Y169.618 E8.4991
G1 X181.737 Y170.912 E8.55629
G1 X181.19 Y172.961 E8.64887
G1 X180.522 Y174.666 E8.72881
G1 X179.673 Y176.297 E8.80908
G1 X178.771 Y177.663 E8.88054
G1 X177.575 Y179.122 E8.96289
G1 X176.3 Y180.377 E9.04099
G1 X174.971 Y181.44 E9.11528
G1 X173.659 Y182.295 E9.18364
G1 X171.746 Y183.266 E9.2773
G1 X170.35 Y183.797 E9.3425
G1 X168.458 Y184.304 E9.428
G1 X166.907 Y184.55 E9.49656
G0 F7200 X166.825 Y184.031
G1 F3600 X164.764 Y184.128 E9.58663
G1 X163.049 Y184.014 E9.66166
G1 X161.451 Y183.747 E9.73239
G1 X159.877 Y183.318 E9.8036
G1 X158.173 Y182.654 E9.88344
G1 X156.541 Y181.805 E9.96374
G1 X155.313 Y180.997 E10.02791
G1 X153.81 Y179.768 E10.11267
G1 X152.632 Y178.571 E10.18598
G1 X151.599 Y177.283 E10.25806
G1 X150.743 Y175.969 E10.32652
G1 X149.823 Y174.15 E10.4155
G1 X149.242 Y172.597 E10.48789
G1 X148.782 Y170.823 E10.56789
G1 X148.573 Y169.491 E10.62675
G1 X148.47 Y167.369 E10.71949
G1 X148.577 Y165.662 E10.79415
G1 X148.782 Y164.368 E10.85135
G1 X149.299 Y162.428 E10.93899
G1 X149.944 Y160.774 E11.01649
G1 X150.793 Y159.143 E11.09676
G1 X151.635 Y157.868 E11.16346
G1 X152.831 Y156.409 E11.24582
G1 X154.028 Y155.231 E11.31913
G1 X155.316 Y154.198 E11.3912
G1 X156.628 Y153.343 E11.45957
G1 X158.446 Y152.423 E11.54851
G1 X160.002 Y151.841 E11.62103
G1 X161.776 Y151.381 E11.70104
G1 X163.108 Y151.172 E11.7599
G1 X165.231 Y151.069 E11.85268
G1 X166.937 Y151.176 E11.9273
G1 X168.231 Y151.381 E11.9845
G1 X170.171 Y151.898 E12.07214
G1 X171.827 Y152.544 E12.14974
G1 X173.456 Y153.392 E12.22991
G1 X174.731 Y154.234 E12.29661
G1 X176.19 Y155.43 E12.37896
G1 X177.368 Y156.627 E12.45228
G1 X178.401 Y157.915 E12.52435
G1 X179.256 Y159.227 E12.59271
G1 X180.176 Y161.045 E12.68166
G1 X180.758 Y162.601 E12.75418
G1 X181.218 Y164.375 E12.83419
G1 X181.427 Y165.705 E12.89296
G1 X181.53 Y167.829 E12.98579
G1 X181.423 Y169.536 E13.06045
G1 X181.218 Y170.83 E13.11764
G1 X180.701 Y172.77 E13.20529
G1 X180.056 Y174.424 E13.28279
G1 X179.207 Y176.055 E13.36306
G1 X178.365 Y177.33 E13.42976
G1 X177.169 Y178.789 E13.51211
G1 X175.972 Y179.967 E13.58543
G1 X174.684 Y181 E13.6575
G1 X173.372 Y181.855 E13.72586
G1 X171.559 Y182.775 E13.81461
G1 X170.163 Y183.306 E13.87982
G1 X168.376 Y183.785 E13.96058
G1 X166.825 Y184.031 E14.02913
G0 F7200 X166.743 Y183.512
G1 F3600 X164.798 Y183.604 E14.11413
G1 X163.135 Y183.496 E14.18688
G1 X161.589 Y183.24 E14.25529
G1 X160.015 Y182.811 E14.32651
G1 X158.415 Y182.188 E14.40146
G1 X156.83 Y181.366 E14.47941
G1 X155.602 Y180.558 E14.54358
G1 X154.143 Y179.362 E14.62593
G1 X153.041 Y178.242 E14.69452
G1 X152.039 Y176.996 E14.76432
G1 X151.183 Y175.682 E14.83278
G1 X150.315 Y173.966 E14.91673
G1 X149.734 Y172.413 E14.98911
G1 X149.301 Y170.742 E15.06447
G1 X149.092 Y169.41 E15.12333
G1 X148.994 Y167.401 E15.21113
G1 X149.096 Y165.744 E15.2836
G1 X149.301 Y164.45 E15.3408
G1 X149.788 Y162.618 E15.42355
G1 X150.41 Y161.016 E15.49857
G1 X151.232 Y159.431 E15.57651
G1 X152.041 Y158.201 E15.64078
G1 X153.237 Y156.742 E15.72313
G1 X154.357 Y155.64 E15.79172
G1 X155.603 Y154.638 E15.86152
G1 X156.915 Y153.783 E15.92988
G1 X158.63 Y152.915 E16.01379
G1 X160.186 Y152.333 E16.08632
G1 X161.857 Y151.9 E16.16167
G1 X163.189 Y151.691 E16.22053
G1 X165.199 Y151.593 E16.30838
G1 X166.855 Y151.695 E16.38081
G1 X168.149 Y151.9 E16.438
G1 X169.981 Y152.387 E16.52075
G1 X171.585 Y153.01 E16.59587
G1 X173.168 Y153.831 E16.67371
G1 X174.398 Y154.64 E16.73798
G1 X175.857 Y155.836 E16.82034
G1 X176.959 Y156.956 E16.88893
G1 X177.961 Y158.202 E16.95872
G1 X178.816 Y159.514 E17.02709
G1 X179.684 Y161.229 E17.111
G1 X180.266 Y162.785 E17.18352
G1 X180.699 Y164.456 E17.25887
G1 X180.908 Y165.786 E17.31764
G1 X181.006 Y167.797 E17.40554
G1 X180.904 Y169.454 E17.47801
G1 X180.699 Y170.748 E17.5352
G1 X180.212 Y172.58 E17.61795
G1 X179.59 Y174.182 E17.69297
G1 X178.768 Y175.767 E17.77092
G1 X177.959 Y176.997 E17.83518
G1 X176.763 Y178.456 E17.91754
G1 X175.643 Y179.558 E17.98613
G1 X174.397 Y180.56 E18.05593
G1 X173.085 Y181.415 E18.12429
G1 X171.372 Y182.284 E18.20814
G1 X169.976 Y182.815 E18.27334
G1 X168.294 Y183.266 E18.34936
G1 X166.743 Y183.512 E18.41792
G0 F7200 X166.661 Y182.993
G1 F3600 X164.831 Y183.08 E18.49789
G1 X163.22 Y182.978 E18.56836
G1 X161.727 Y182.733 E18.63441
G1 X160.153 Y182.304 E18.70562
G1 X158.656 Y181.722 E18.77574
G1 X157.118 Y180.927 E18.85132
G1 X155.934 Y180.151 E18.91312
G1 X154.517 Y178.993 E18.993
G1 X153.45 Y177.912 E19.05931
G1 X152.479 Y176.709 E19.1268
G1 X151.623 Y175.395 E19.19526
G1 X150.806 Y173.781 E19.27423
G1 X150.242 Y172.281 E19.34418
G1 X149.82 Y170.661 E19.41726
G1 X149.611 Y169.329 E19.47612
G1 X149.518 Y167.433 E19.55899
G1 X149.615 Y165.826 E19.62927
G1 X149.82 Y164.532 E19.68646
G1 X150.295 Y162.754 E19.7668
G1 X150.876 Y161.257 E19.8369
G1 X151.671 Y159.719 E19.91248
G1 X152.448 Y158.533 E19.97437
G1 X153.606 Y157.116 E20.05426
G1 X154.687 Y156.049 E20.12056
G1 X155.89 Y155.078 E20.18805
G1 X157.202 Y154.223 E20.25641
G1 X158.815 Y153.406 E20.33534
G1 X160.318 Y152.841 E20.40544
G1 X161.938 Y152.419 E20.47852
G1 X163.27 Y152.21 E20.53738
G1 X165.167 Y152.117 E20.62029
G1 X166.773 Y152.214 E20.69052
G1 X168.067 Y152.419 E20.74772
G1 X169.845 Y152.894 E20.82806
G1 X171.344 Y153.476 E20.89825
G1 X172.88 Y154.27 E20.97373
G1 X174.066 Y155.047 E21.03563
G1 X175.483 Y156.205 E21.11551
G1 X176.55 Y157.286 E21.18182
G1 X177.521 Y158.489 E21.24931
G1 X178.376 Y159.801 E21.31767
G1 X179.193 Y161.414 E21.3966
G1 X179.758 Y162.917 E21.4667
G1 X180.18 Y164.537 E21.53978
G1 X180.389 Y165.867 E21.59855
G1 X180.482 Y167.765 E21.6815
G1 X180.385 Y169.372 E21.75178
G1 X180.18 Y170.666 E21.80897
G1 X179.705 Y172.444 E21.88931
G1 X179.124 Y173.941 E21.95941
G1 X178.329 Y175.479 E22.03499
G1 X177.552 Y176.665 E22.09689
G1 X176.394 Y178.082 E22.17677
G1 X175.313 Y179.149 E22.24308
G1 X174.11 Y180.12 E22.31057
G1 X172.798 Y180.975 E22.37893
G1 X171.185 Y181.793 E22.45788
G1 X169.789 Y182.324 E22.52308
G1 X168.212 Y182.747 E22.59436
G1 X166.661 Y182.993 E22.66291
G0 F7200 X166.579 Y182.474
G1 F3600 X164.863 Y182.556 E22.73791
G1 X163.304 Y182.46 E22.80609
G1 X161.865 Y182.226 E22.86973
G1 X160.291 Y181.797 E22.94095
G1 X158.896 Y181.255 E23.00628
G1 X157.405 Y180.487 E23.0795
G1 X156.266 Y179.744 E23.13886
G1 X154.891 Y178.624 E23.21628
G1 X153.824 Y177.543 E23.28259
G1 X152.919 Y176.422 E23.34548
G1 X152.063 Y175.108 E23.41394
G1 X151.297 Y173.595 E23.48797
G1 X150.75 Y172.148 E23.5555
G1 X150.339 Y170.58 E23.62626
G1 X150.13 Y169.248 E23.68512
G1 X150.042 Y167.464 E23.76309
G1 X150.134 Y165.908 E23.83114
G1 X150.339 Y164.614 E23.88833
G1 X150.802 Y162.89 E23.96626
G1 X151.343 Y161.497 E24.03149
G1 X152.111 Y160.006 E24.10471
G1 X152.855 Y158.865 E24.16417
G1 X153.975 Y157.49 E24.24159
G1 X155.056 Y156.423 E24.30789
G1 X156.177 Y155.518 E24.37078
G1 X157.489 Y154.663 E24.43915
G1 X159.001 Y153.897 E24.51314
G1 X160.451 Y153.349 E24.58081
G1 X162.019 Y152.938 E24.65157
G1 X163.351 Y152.729 E24.71043
G1 X165.136 Y152.641 E24.78844
G1 X166.691 Y152.733 E24.85644
G1 X167.985 Y152.938 E24.91364
G1 X169.709 Y153.401 E24.99156
G1 X171.104 Y153.943 E25.0569
G1 X172.593 Y154.71 E25.13001
G1 X173.734 Y155.454 E25.18948
G1 X175.109 Y156.574 E25.26689
G1 X176.176 Y157.655 E25.3332
G1 X177.081 Y158.776 E25.39609
G1 X177.936 Y160.088 E25.46445
G1 X178.702 Y161.6 E25.53844
G1 X179.25 Y163.05 E25.60611
G1 X179.661 Y164.618 E25.67687
G1 X179.87 Y165.948 E25.73565
G1 X179.958 Y167.734 E25.81371
G1 X179.866 Y169.29 E25.88175
G1 X179.661 Y170.584 E25.93894
G1 X179.198 Y172.308 E26.01687
G1 X178.657 Y173.701 E26.08211
G1 X177.889 Y175.192 E26.15532
G1 X177.145 Y176.333 E26.21478
G1 X176.025 Y177.708 E26.2922
G1 X174.944 Y178.775 E26.35851
G1 X173.823 Y179.68 E26.4214
G1 X172.511 Y180.535 E26.48976
G1 X170.998 Y181.302 E26.56381
G1 X169.602 Y181.833 E26.62901
G1 X168.13 Y182.228 E26.69554
G1 X166.579 Y182.474 E26.7641
G0 F7200 X166.497 Y181.955
G1 F3600 X164.894 Y182.032 E26.83416
G1 X163.388 Y181.942 E26.90002
G1 X161.949 Y181.708 E26.96366
G1 X160.48 Y181.307 E27.03013
G1 X159.136 Y180.788 E27.09303
G1 X157.692 Y180.047 E27.16388
G1 X156.553 Y179.304 E27.22324
G1 X155.264 Y178.255 E27.29579
G1 X154.232 Y177.212 E27.35984
G1 X153.359 Y176.135 E27.42036
G1 X152.503 Y174.821 E27.48882
G1 X151.788 Y173.409 E27.55792
G1 X151.258 Y172.014 E27.62306
G1 X150.858 Y170.499 E27.69146
G1 X150.649 Y169.167 E27.75032
G1 X150.566 Y167.494 E27.82344
G1 X150.653 Y165.99 E27.88921
G1 X150.858 Y164.696 E27.9464
G1 X151.292 Y163.079 E28.01949
G1 X151.81 Y161.737 E28.08228
G1 X152.551 Y160.293 E28.15314
G1 X153.295 Y159.152 E28.2126
G1 X154.344 Y157.863 E28.28515
G1 X155.387 Y156.831 E28.3492
G1 X156.464 Y155.958 E28.40972
G1 X157.776 Y155.103 E28.47808
G1 X159.188 Y154.388 E28.54717
G1 X160.585 Y153.857 E28.61241
G1 X162.1 Y153.457 E28.68082
G1 X163.432 Y153.248 E28.73968
G1 X165.106 Y153.165 E28.81284
G1 X166.609 Y153.252 E28.87856
G1 X167.903 Y153.457 E28.93576
G1 X169.52 Y153.891 E29.00884
G1 X170.864 Y154.41 E29.07174
G1 X172.306 Y155.15 E29.14249
G1 X173.447 Y155.894 E29.20195
G1 X174.736 Y156.943 E29.2745
G1 X175.768 Y157.986 E29.33855
G1 X176.641 Y159.063 E29.39907
G1 X177.496 Y160.375 E29.46744
G1 X178.211 Y161.787 E29.53653
G1 X178.742 Y163.184 E29.60177
G1 X179.142 Y164.699 E29.67017
G1 X179.351 Y166.029 E29.72894
G1 X179.434 Y167.704 E29.80215
G1 X179.347 Y169.208 E29.86792
G1 X179.142 Y170.502 E29.92511
G1 X178.708 Y172.119 E29.9982
G1 X178.19 Y173.461 E30.06099
G1 X177.449 Y174.905 E30.13185
G1 X176.705 Y176.046 E30.19131
G1 X175.656 Y177.335 E30.26386
G1 X174.613 Y178.367 E30.32791
G1 X173.536 Y179.24 E30.38843
G1 X172.224 Y180.095 E30.45679
G1 X170.811 Y180.811 E30.52594
G1 X169.415 Y181.342 E30.59114
G1 X168.048 Y181.709 E30.65293
G1 X166.497 Y181.955 E30.72148
G0 F7200 X166.415 Y181.436
G1 F3600 X164.924 Y181.508 E30.78665
G1 X163.472 Y181.424 E30.85014
G1 X162.033 Y181.19 E30.91378
G1 X160.668 Y180.817 E30.97556
G1 X159.375 Y180.32 E31.03603
G1 X157.979 Y179.607 E31.10446
G1 X156.84 Y178.864 E31.16382
G1 X155.637 Y177.885 E31.23153
G1 X154.64 Y176.881 E31.2933
G1 X153.767 Y175.804 E31.35382
G1 X152.943 Y174.535 E31.41987
G1 X152.278 Y173.222 E31.48412
G1 X151.765 Y171.879 E31.54688
G1 X151.377 Y170.418 E31.61287
G1 X151.168 Y169.086 E31.67172
G1 X151.09 Y167.524 E31.74
G1 X151.172 Y166.072 E31.80348
G1 X151.377 Y164.778 E31.86068
G1 X151.782 Y163.267 E31.92897
G1 X152.278 Y161.976 E31.98934
G1 X152.991 Y160.58 E32.05777
G1 X153.735 Y159.439 E32.11723
G1 X154.714 Y158.236 E32.18494
G1 X155.718 Y157.239 E32.24671
G1 X156.795 Y156.366 E32.30723
G1 X158.062 Y155.543 E32.37318
G1 X159.375 Y154.878 E32.43743
G1 X160.72 Y154.364 E32.50029
G1 X162.181 Y153.976 E32.56628
G1 X163.513 Y153.767 E32.62513
G1 X165.076 Y153.689 E32.69345
G1 X166.527 Y153.771 E32.75689
G1 X167.821 Y153.976 E32.81409
G1 X169.332 Y154.381 E32.88238
G1 X170.625 Y154.878 E32.94285
G1 X172.019 Y155.59 E33.01118
G1 X173.16 Y156.334 E33.07064
G1 X174.363 Y157.313 E33.13835
G1 X175.36 Y158.317 E33.20012
G1 X176.233 Y159.394 E33.26064
G1 X177.056 Y160.661 E33.32659
G1 X177.721 Y161.974 E33.39084
G1 X178.235 Y163.319 E33.4537
G1 X178.623 Y164.78 E33.51969
G1 X178.832 Y166.11 E33.57846
G1 X178.91 Y167.674 E33.64682
G1 X178.828 Y169.126 E33.7103
G1 X178.623 Y170.42 E33.7675
G1 X178.218 Y171.931 E33.83579
G1 X177.722 Y173.222 E33.89616
G1 X177.009 Y174.618 E33.96459
G1 X176.265 Y175.759 E34.02405
G1 X175.286 Y176.962 E34.09176
G1 X174.282 Y177.959 E34.15353
G1 X173.205 Y178.832 E34.21405
G1 X171.938 Y179.655 E34.28
G1 X170.624 Y180.32 E34.34429
G1 X169.228 Y180.851 E34.40949
G1 X167.966 Y181.19 E34.46653
G1 X166.415 Y181.436 E34.53509
G1 F2700 E34.03509
G0 F7200 X166.362 Y180.388
G1 F2700 E34.53509
G1 F3600 X164.981 Y180.46 E34.59546
G1 X163.638 Y180.388 E34.65417
G1 X162.306 Y180.176 E34.71305
G1 X161.044 Y179.837 E34.77009
G1 X159.751 Y179.34 E34.83056
G1 X158.552 Y178.727 E34.88935
G1 X157.457 Y178.016 E34.94634
G1 X156.38 Y177.144 E35.00683
